!!!SOCIAL_FUNCTION:	songs of war
!!!PDT:	1918

Specific Region: Dakotas, Minnesota, Montana, Nebraska
!!!REG: Dakotas and Montana
!!!LING_GROUP: Siouan
!!!LANG: Tone
!!!OTL@ENG: Song of the White Horse Riders (b)
!!!ONM: No. 124
**kern
*Imale
*clefF4
*k[b-e-a-]
*M3/4
*>[A,B,B]
*>norep[A,B]
*>A
*MM76
4f
8g-
16f
16f
4e-
=2
2e-
8B-
8B-
=3||
*M2/4
8.e-
16e-
8.e-
16e-
=4||
*M3/4
4f
8g-
16f
16f
4e-
=5||
*M2/4
2e-
=6||
*M3/4
4B-
8B-
8G
8F
16G
16F
=7||
*M2/4
4E-
8E-
8E-
=8
[2E-
=9
4E-]
4BB-
=10
8.E-
16E-
4E-
=11||
*M3/4
4G
8G
16F
16F
4E-
=12||
*M2/4
2BB-
=13
2BB-
=14||
*M3/4
2BB-
*>B
=!|:
4B-
=||
*M2/4
8.e-
16e-
8.e-
16e-
=15||
*M3/4
4f
8g-
16f
16f
4e-
=16||
*M2/4
2e-
=17||
*M3/4
4B-
8B-
8G-
8F
16G-
16F
=18||
*M2/4
4E-
8E-
8E-
=19
[2E-
=20
4E-]
4BB-
=21
8.E-
16E-
8.E-
16E-
=22||
*M3/4
4G
8G
16F
16F
4E-
=23||
*M2/4
4.BB-
8BB-
=24
[2BB-
=25||
*M3/4
2BB-]
==:|!
*-
!!!CNT: Native American -- Sioux
!!!MRD: 1911/07//-1914///
!!!OCL: Frances Densmore
!!!YOR1: Teton Sioux Music, Bulletin 61,
!!!YOR2: Bureau of American Ethnology, Smithsonian Institution
!!!PPR: Government Printing Office
!!!PPP: Washington, D.C.
!!!PDT: 1918///
!!!ENC: Craig Stuart Sapp
!!!END: 2002/03/25/
!!!EEV: 2002/03/31/
!!!AGN: War Song
!!!MPN@@SIO: Waha'chungka-nong'pa
!!!MPN@ENG: Two Shields
!!!TXO: Teton Sioux
!!!MLC: Standing Rock Reservation, South Dakota, United States of America
!!!ARL: 45.9/-100.7#
!!!catalog: Catalogue No. 535
!!!PPG: 331
!!!EFL: 124/245
!!!VTS: 3038792063
